Dominus_Funeral/scalable/actions/mail-mark-notjunk.svg

<?xml version="1.0" encoding="UTF-8" standalone="no"?>
<svg
   xmlns:dc="http://purl.org/dc/elements/1.1/"
   xmlns:cc="http://creativecommons.org/ns#"
   xmlns:rdf="http://www.w3.org/1999/02/22-rdf-syntax-ns#"
   xmlns:svg="http://www.w3.org/2000/svg"
   xmlns="http://www.w3.org/2000/svg"
   xmlns:sodipodi="http://sodipodi.sourceforge.net/DTD/sodipodi-0.dtd"
   xmlns:inkscape="http://www.inkscape.org/namespaces/inkscape"
   width="24"
   height="24"
   version="1.1"
   id="svg4"
   sodipodi:docname="mail-mark-notjunk.svg"
   inkscape:version="0.92.4 (5da689c313, 2019-01-14)">
  <metadata
     id="metadata10">
    <rdf:RDF>
      <cc:Work
         rdf:about="">
        <dc:format>image/svg+xml</dc:format>
        <dc:type
           rdf:resource="http://purl.org/dc/dcmitype/StillImage" />
        <dc:title></dc:title>
      </cc:Work>
    </rdf:RDF>
  </metadata>
  <defs
     id="defs8" />
  <sodipodi:namedview
     pagecolor="#ffffff"
     bordercolor="#666666"
     borderopacity="1"
     objecttolerance="10"
     gridtolerance="10"
     guidetolerance="10"
     inkscape:pageopacity="0"
     inkscape:pageshadow="2"
     inkscape:window-width="1112"
     inkscape:window-height="480"
     id="namedview6"
     showgrid="false"
     inkscape:zoom="9.8333333"
     inkscape:cx="1.0677966"
     inkscape:cy="12"
     inkscape:window-x="0"
     inkscape:window-y="25"
     inkscape:window-maximized="0"
     inkscape:current-layer="svg4" />
  <path
     d="M 20.09,2.755 A 0.286,0.286 0 0 0 19.886,2.839 L 16.761,5.964 H 14.928 L 14.522,3.937 h -9.12 v 13.387 l -2.563,2.562 a 0.287,0.287 0 0 0 0,0.407 l 0.868,0.868 a 0.286,0.286 0 0 0 0.406,0 L 5.4,19.872 v 1.294 h 2.027 v -3.32 l 3.774,-3.774 h 1.901 l 0.406,2.027 h 7.094 V 5.964 H 19.31 l 1.851,-1.85 a 0.287,0.287 0 0 0 0,-0.407 L 20.292,2.839 A 0.286,0.286 0 0 0 20.089,2.755 Z M 7.427,14.072 h 1.225 l -1.225,1.225 z"
     id="path2"
     inkscape:connector-curvature="0"
     style="fill:#1a1a1a" />
</svg>

<svg xmlns="http://www.w3.org/2000/svg" width="24" height="24"><path fill="#1a1a1a" d="M20.09 2.75a.29.29 0 0 0-.2.09l-3.13 3.12h-1.83l-.4-2.02H5.4v13.38L2.84 19.9a.29.29 0 0 0 0 .4l.87.87a.29.29 0 0 0 .4 0l1.29-1.29v1.3h2.03v-3.32l3.77-3.78h1.9l.4 2.03h7.1V5.96h-1.29l1.85-1.85a.29.29 0 0 0 0-.4l-.87-.87a.29.29 0 0 0-.2-.08zM7.43 14.07h1.22L7.43 15.3z"/></svg>
